public/laptop.svg

<svg xmlns="http://www.w3.org/2000/svg" width="1323" height="606" fill="none" viewBox="0 0 1323 606"><g clip-path="url(#a)"><path fill="#b8926a" d="M1323 413.608v5.841l-207.63.046c-22.78 13.365-48.48 16.093-73.26 7.092-1.69-6.365 4.61-11.888 11.47-12.07l59.82-1.591c.36-20.367 10.88-37.847 13.49-55.509 3.14-21.298-5-47.757 13.45-65.055 2.71-2.546 10.11-5.864 13.59-5.683 15.76.887.07 48.553-17.11 77.989 23.06-17.502 40.48-75.875 24.76-82.58-4.04-1.728-14.42-1.137-17.92 1.591l-16.84 13.093 11.2-51.303c-19.06 8.274-31.67 13.502-50.04 13.479l-29.56-.046-53.64-5.978c-1.18 8.547-1.16 20.731-.16 30.959l3.2 32.869c3.21 32.823 8.93 63.532 21.2 94.014 2 5.001 2 12.07-.5 17.48l-74.472-1.068c-20.583-.296-36.69-8.161-51.026-23.072l-6.316 24.254-91.374.545-41.802 1.932c-4.635 44.28-48.164 58.532-93.215 60.691-82.151 3.955-133.109-50.325-165.483 7.32l42.211-15.571c73.268 5.569 144.264 16.252 214.556 35.778 12.904 3.592 25.853 6.569 33.6 20.844l-186.815-31.732c-17.244-2.932-35.192-5.819-52.503-5.478-13.427.273-55.07 21.867-58.092 25.413-1.499 1.75-.273 7.183.818 11.002 65.134 16.388 128.633 29.959 195.153 42.983 41.894-3.273 77.676-17.775 111.072-43.165l-2.363 28.845c-33.305 12.752-67.179 40.711-105.732 37.983-56.797-4.001-111.413-22.003-166.915-33.869l-85.535-18.298c-5.067-23.276 16.493-37.233 42.779-44.552.772-19.276 12.518-34.937 29.33-43.711 17.993-9.411 35.804-9.524 55.274-3.001 42.848 14.389 88.558 21.822 132.586 11.979 23.355-5.228 43.802-19.23 47.096-43.188l-64.884 1.569-164.642 2.773c-43.37.727-128.225 8.183-137.789-7.661-3.317-5.5-3.454-14.047-2.863-24.867l-60.25 11.615c-14.722 2.842-29.67 12.139-45.687 12.661l-57.297 1.864c-2.317.069-7.679 1.91-9.655 3.16-1.977 1.25-3.044 8.092-2.59 10.433 7.043 36.301-30.125 42.893-69.315 54.372-39.916 11.706-78.652 22.413-117.024 38.665L0 545.923v-5.115c13.95-8.274 29.125-16.343 46.71-21.798l134.131-41.575c31.352-9.729 15.199-44.325 23.65-49.484 2.544-1.546 9.065-2.887 12.541-3.069l27.33-1.387c21.787-1.113 41.507-2.477 61.931-8.887l-67.156-2.114c-12.291-.387-28.626-7.706-34.851-17.48-14.63-22.913 15.813-56.1-13.472-53.986l-40.848 2.933c-24.309 1.75-47.459 3.864-74.972-6.956 17.925-17.343 39.417-17.684 62.204-22.276 19.152-3.841 40.417 2.478 58.842 6.501 22.764-25.822 58.409-8.001 107.868-27.072 10.223-3.933 19.879 3.364 23.264 13.479 6.747-7.592 18.856-10.001 27.876-15.661 26.24-16.48 44.119-41.507 64.203-66.419l-81.015-34.824c-.705-3.932 5.475-13.002 9.337-14.093 29.58 14.843 56.865 26.163 86.786 37.688 6.974-10.366 14.539-22.686 25.422-25.572 16.971-4.524 34.101 6.046 49.299 13.661 3.022-8.456 8.361-14.912 15.608-16.071 8.451-1.364 18.834 3.751 18.061 12.547-2.953 33.756 21.924 25.959 12.7 46.644 21.106 5.342 34.192 22.48 28.921 43.256l43.529 32.005c-19.334 11.047-34.896 1.318-47.618-10.274l-12.382 12.684c-14.086 14.434-37.577 25.549-56.592 10.478l46.846-13.183c1.908-.546 5.884-4.387 7.088-5.569 6.679-6.592-33.851-11.525-56.093 19.775-29.602 41.688-68.269 71.897-121.181 70.42-2.726 3.887-3.044 14.866-.341 18.707 2.317 3.319 10.428 7.683 14.835 7.615l128.111-1.773 170.481-2.591 49.254-2.41c-1.635-2.932-8.61-8.342-12.109-8.296l-172.207 1.636c-35.555.341-103.87 6.16-108.3-4.364-4.726-11.184 20.833-33.619 37.122-49.007l34.01-3.615 44.438-2.318c48.322-2.523 95.736-2.91 143.945.5 50.89 3.614 98.599 17.253 148.512 26.413 12.859 2.364 23.151 11.911 33.897 20.435 3.226-31.846-77.835-40.188-118.683-47.007l-61.499-10.274 7.542-31.846c27.49-79.171 58.137-155.433 89.625-232.99 5.975-14.706 12.927-23.935 29.126-27.936L1071.5 0c-20.85 63.191-42.87 118.881-67.24 176.958l-58.14 138.589-38.1 83.672c16.017 26.254 51.731 22.14 85.832 24.004 11.498.636 23.288 2.227 33.468-1.933-22.38-56.031-29.97-118.472-27.675-174.48l38.435 5.069c24.79 3.273 48.28 5.114 73.48-2.432l-74.27-1.023-28.35-5.433c-2.37-.455-6.52-5.251-6.91-7.478-.39-2.228 4.27-7.206 6.5-7.615l28.83-5.342c36.37-.773 85.83-4.478 98.48 12.843 5.02 6.887 6.61 19.389 4.64 26.959l-4.98 19.093c11.25-5.637 19.86-7.614 28.06-3.864 22.51 10.252 1.95 64.601-20.54 90.832l-11.74-.568c-2.43-.114-5.16 7.546-5.68 9.956l-8 35.891 205.45-.136zm-563.174-63.283c49.436 9.115 110.663 10.002 145.491 42.825C962.818 264.812 1017.09 138.498 1064.44 6.456L858.903 57.418c-11.632 3.614-21.197 7.274-31.261 13.66l-83.037 210.896-19.788 61.873 35.032 6.456zM502.81 334.209c14.608-20.389 37.736-34.209 62.522-27.868 2.544 2.41 7.679 5.956 8.678 3.842 16.017-34.096-57.637-23.367-66.656-57.418 5.498-.977 17.72-.318 23.105 2.887l48.686 28.959c4.498-26.663-19.379-33.892-47.028-41.506-29.512-8.138-26.263-26.777-50.572-38.097l17.539-1.25c-9.701-4.546-25.967-15.434-39.212-9.206-9.747 4.591-17.062 16.343-25.014 25.845l-91.556-36.619c19.765 17.161 80.424 30.754 79.379 42.87-.886 10.115-39.758 51.053-59.455 67.692l-30.965 15.047 48.345 2.887c16.153-29.845 37.781-55.554 61.113-80.353 21.447-22.799 41.871-25.004 43.847-17.275l3.34 13.025c.659 2.545 7.066 6.182 6.884 8.842l-.659 9.819 12.086 15.98 8.065 12.184c1.954 2.955-2.34 10.683-4.793 15.479-1.999 3.887-.886 12.32-.909 18.912-.182 37.188-78.129 68.942-117.228 88.491 43.96 7.705 85.717-28.55 110.481-63.101zm19.697-110.926c9.042 8.32 18.607 15.798 31.443 12.866-15.631-9.888-18.448-23.14-16.04-37.392.182-3.887-8.883-9.001-12.404-7.569-3.09 1.25-9.974 7.887-8.86 9.365l16.789 14.934c-10.86-1.296-16.994-3.91-27.672-7.638l16.789 15.434zm-18.402 85.513c-1.272-12.933-.159-18.684 6.429-31.573l-14.449-20.889c-.977-1.432-8.179-2.091-7.86-3.796l1.544-8.297c.364-1.977 1.341-8.956-.59-8.842l-9.656.591 3.158-20.003c-14.403-.318-23.4 5.978-32.692 15.502-25.581 26.141-49.868 53.917-66.657 87.354-16.811-2.25-35.804-2.705-51.639-2.205l6.02 42.029c2.249 15.73-5.27 34.165-10.428 49.212l57.002-11.001 31.828-17.071c28.49-15.275 90.762-42.938 87.99-70.988zm628.445-67.055c-6.41-10.388-15.99-13.184-24.51-13.229l-73.52-.387c-8.02-.045-17.79 3.114-27.56 7.001 8.25 4.546 18.38 8.024 27.72 7.91l97.89-1.295zm22.63 52.803c-16.41-8.046-29.61 32.187-20.61 59.714 12.52-17.571 19.9-37.915 20.61-59.714m-539.776 24.072c-11.814-10.274-22.833-18.139-34.305-23.344 1.953 19.48 19.038 25.299 34.305 23.344m-420.523 16.889c3.453-.205 10.882 2.523 12.631 5.114 7.543 11.207-6.997 30.073-.204 48.553 3.794 10.297 20.151 18.003 31.306 18.048l81.083.205c18.925-28.254 13.586-68.056 1.636-100.561-6.407-17.434-26.308-.227-56.32 1.796l-35.214 2.387c-14.358.977-25.603 5.25-30.715 20.298-31.443-19.912-75.358-12.547-113.684 2.751 24.127 9.842 46.437 5.159 70.496 3.705l38.985-2.319zm562.787 89.104c.159-7.887-2.249-14.002.023-14.093l9.564-.409 35.192-1.478 87.489-2.704c-12.836-12.957-26.989-16.889-43.074-19.299-41.553-6.228-81.719-18.707-124.067-21.526-55.933-3.705-110.64-1.091-166.937-.977l-27.081 2.5c-8.769.818-25.626.523-32.215 4.819-15.721 10.797-27.126 23.89-35.895 41.643 52.366.568 99.871-.319 149.557-.955l122.067-1.546c11.723-.159 19.47 4.887 25.354 14.071zm51.14-.955c25.854-1.318 53.275-1.318 77.493.228 2.227.136 8.474-1.41 8.134-3.273l-1.704-9.138-69.474 2.159-60.023.75 1.204 11.525zm293.232-3.205-47.51-1.272c-1-.023-6.04 5.159-5.04 5.273l5.93.75c16.7 2.114 32.9.477 46.62-4.751M502.855 546.15c-5.588-1.205-12.063-8.933-11.768-13.343 1.022-15.479 56.206-36.733 67.134-35.869l23.923 1.864 194.54 32.528c-26.672-12.411-54.684-17.526-84.105-22.731-47.527-8.41-94.169-17.73-142.991-18.548-18.652-.318-33.715 15.002-52.935 17.798l5.498-20.276c-7.588 3.342-8.883 16.253-8.156 24.481-23.15 7.274-45.755 15.275-44.96 36.869l142.287 32.005 105.415 22.344c32.964-6.933 61.567-18.593 90.715-34.255 7.202-2.818 12.337-8.956 11.496-18.798-31.397 20.139-64.18 34.164-102.166 37.915l-193.904-41.938z"/></g><defs><clipPath id="a"><path fill="#fff" d="M0 0h1323v606H0z"/></clipPath></defs></svg>

<svg width="1323" height="606" viewBox="0 0 1323 606" fill="none" xmlns="http://www.w3.org/2000/svg">
<g clip-path="url(#clip0_154_69)">
<path d="M1323 413.608V419.449L1115.37 419.495C1092.59 432.86 1066.89 435.588 1042.11 426.587C1040.42 420.222 1046.72 414.699 1053.58 414.517L1113.4 412.926C1113.76 392.559 1124.28 375.079 1126.89 357.417C1130.03 336.119 1121.89 309.66 1140.34 292.362C1143.05 289.816 1150.45 286.498 1153.93 286.679C1169.69 287.566 1154 335.232 1136.82 364.668C1159.88 347.166 1177.3 288.793 1161.58 282.088C1157.54 280.36 1147.16 280.951 1143.66 283.679L1126.82 296.772L1138.02 245.469C1118.96 253.743 1106.35 258.971 1087.98 258.948L1058.42 258.902L1004.78 252.924C1003.6 261.471 1003.62 273.655 1004.62 283.883L1007.82 316.752C1011.03 349.575 1016.75 380.284 1029.02 410.766C1031.02 415.767 1031.02 422.836 1028.52 428.246L954.048 427.178C933.465 426.882 917.358 419.017 903.022 404.106L896.706 428.36L805.332 428.905L763.53 430.837C758.895 475.117 715.366 489.369 670.315 491.528C588.164 495.483 537.206 441.203 504.832 498.848L547.043 483.277C620.311 488.846 691.307 499.529 761.599 519.055C774.503 522.647 787.452 525.624 795.199 539.899L608.384 508.167C591.14 505.235 573.192 502.348 555.881 502.689C542.454 502.962 500.811 524.556 497.789 528.102C496.29 529.852 497.516 535.285 498.607 539.104C563.741 555.492 627.24 569.063 693.76 582.087C735.654 578.814 771.436 564.312 804.832 538.922L802.469 567.767C769.164 580.519 735.29 608.478 696.737 605.75C639.94 601.749 585.324 583.747 529.822 571.881L444.287 553.583C439.22 530.307 460.78 516.35 487.066 509.031C487.838 489.755 499.584 474.094 516.396 465.32C534.389 455.909 552.2 455.796 571.67 462.319C614.518 476.708 660.228 484.141 704.256 474.298C727.611 469.07 748.058 455.068 751.352 431.11L686.468 432.679L521.826 435.452C478.456 436.179 393.601 443.635 384.037 427.791C380.72 422.291 380.583 413.744 381.174 402.924L320.924 414.539C306.202 417.381 291.254 426.678 275.237 427.2L217.94 429.064C215.623 429.133 210.261 430.974 208.285 432.224C206.308 433.474 205.241 440.316 205.695 442.657C212.738 478.958 175.57 485.55 136.38 497.029C96.4635 508.735 57.7282 519.442 19.3563 535.694L0 545.923V540.808C13.9493 532.534 29.1254 524.465 46.7096 519.01L180.841 477.435C212.193 467.706 196.04 433.11 204.491 427.951C207.035 426.405 213.556 425.064 217.032 424.882L244.362 423.495C266.149 422.382 285.869 421.018 306.293 414.608L239.137 412.494C226.846 412.107 210.511 404.788 204.286 395.014C189.656 372.101 220.099 338.914 190.814 341.028L149.966 343.961C125.657 345.711 102.507 347.825 74.9944 337.005C92.9194 319.662 114.411 319.321 137.198 314.729C156.35 310.888 177.615 317.207 196.04 321.23C218.804 295.408 254.449 313.229 303.908 294.158C314.131 290.225 323.787 297.522 327.172 307.637C333.919 300.045 346.028 297.636 355.048 291.976C381.288 275.496 399.167 250.469 419.251 225.557L338.236 190.733C337.531 186.801 343.711 177.731 347.573 176.64C377.153 191.483 404.438 202.803 434.359 214.328C441.333 203.962 448.898 191.642 459.781 188.756C476.752 184.232 493.882 194.802 509.08 202.417C512.102 193.961 517.441 187.505 524.688 186.346C533.139 184.982 543.522 190.097 542.749 198.893C539.796 232.649 564.673 224.852 555.449 245.537C576.555 250.879 589.641 268.017 584.37 288.793L627.899 320.798C608.565 331.845 593.003 322.116 580.281 310.524L567.899 323.208C553.813 337.642 530.322 348.757 511.307 333.686L558.153 320.503C560.061 319.957 564.037 316.116 565.241 314.934C571.92 308.342 531.39 303.409 509.148 334.709C479.546 376.397 440.879 406.606 387.967 405.129C385.241 409.016 384.923 419.995 387.626 423.836C389.943 427.155 398.054 431.519 402.461 431.451L530.572 429.678L701.053 427.087L750.307 424.677C748.672 421.745 741.697 416.335 738.198 416.381L565.991 418.017C530.436 418.358 462.121 424.177 457.691 413.653C452.965 402.469 478.524 380.034 494.813 364.646L528.823 361.031L573.261 358.713C621.583 356.19 668.997 355.803 717.206 359.213C768.096 362.827 815.805 376.466 865.718 385.626C878.577 387.99 888.869 397.537 899.615 406.061C902.841 374.215 821.78 365.873 780.932 359.054L719.433 348.78L726.975 316.934C754.465 237.763 785.112 161.501 816.6 83.9444C822.575 69.2377 829.527 60.009 845.726 56.0084L1071.5 0C1050.65 63.1913 1028.63 118.881 1004.26 176.958L946.12 315.547L908.02 399.219C924.037 425.473 959.751 421.359 993.852 423.223C1005.35 423.859 1017.14 425.45 1027.32 421.29C1004.94 365.259 997.35 302.818 999.645 246.81L1038.08 251.879C1062.87 255.152 1086.36 256.993 1111.56 249.447L1037.29 248.424L1008.94 242.991C1006.57 242.536 1002.42 237.74 1002.03 235.513C1001.64 233.285 1006.3 228.307 1008.53 227.898L1037.36 222.556C1073.73 221.783 1123.19 218.078 1135.84 235.399C1140.86 242.286 1142.45 254.788 1140.48 262.358L1135.5 281.451C1146.75 275.814 1155.36 273.837 1163.56 277.587C1186.07 287.839 1165.51 342.188 1143.02 368.419L1131.28 367.851C1128.85 367.737 1126.12 375.397 1125.6 377.807L1117.6 413.698L1323.05 413.562L1323 413.608ZM759.826 350.325C809.262 359.44 870.489 360.327 905.317 393.15C962.818 264.812 1017.09 138.498 1064.44 6.45551L858.903 57.4177C847.271 61.0319 837.706 64.6915 827.642 71.0788L744.605 281.974L724.817 343.847L759.849 350.303L759.826 350.325ZM502.81 334.209C517.418 313.82 540.546 300 565.332 306.341C567.876 308.751 573.011 312.297 574.01 310.183C590.027 276.087 516.373 286.816 507.354 252.765C512.852 251.788 525.074 252.447 530.459 255.652L579.145 284.611C583.643 257.948 559.766 250.719 532.117 243.105C502.605 234.967 505.854 216.328 481.545 205.008L499.084 203.758C489.383 199.212 473.117 188.324 459.872 194.552C450.125 199.143 442.81 210.895 434.858 220.397L343.302 183.778C363.067 200.939 423.726 214.532 422.681 226.648C421.795 236.763 382.923 277.701 363.226 294.34L332.261 309.387L380.606 312.274C396.759 282.429 418.387 256.72 441.719 231.921C463.166 209.122 483.59 206.917 485.566 214.646L488.906 227.671C489.565 230.216 495.972 233.853 495.79 236.513L495.131 246.332L507.217 262.312L515.282 274.496C517.236 277.451 512.942 285.179 510.489 289.975C508.49 293.862 509.603 302.295 509.58 308.887C509.398 346.075 431.451 377.829 392.352 397.378C436.312 405.083 478.069 368.828 502.833 334.277L502.81 334.209ZM522.507 223.283C531.549 231.603 541.114 239.081 553.95 236.149C538.319 226.261 535.502 213.009 537.91 198.757C538.092 194.87 529.027 189.756 525.506 191.188C522.416 192.438 515.532 199.075 516.646 200.553L533.435 215.487C522.575 214.191 516.441 211.577 505.763 207.849L522.552 223.283H522.507ZM504.105 308.796C502.833 295.863 503.946 290.112 510.534 277.223L496.085 256.334C495.108 254.902 487.906 254.243 488.225 252.538L489.769 244.241C490.133 242.264 491.11 235.285 489.179 235.399L479.523 235.99L482.681 215.987C468.278 215.669 459.281 221.965 449.989 231.489C424.408 257.63 400.121 285.406 383.332 318.843C366.521 316.593 347.528 316.138 331.693 316.638L337.713 358.667C339.962 374.397 332.443 392.832 327.285 407.879L384.287 396.878L416.115 379.807C444.605 364.532 506.877 336.869 504.105 308.819V308.796ZM1132.55 241.741C1126.14 231.353 1116.56 228.557 1108.04 228.512L1034.52 228.125C1026.5 228.08 1016.73 231.239 1006.96 235.126C1015.21 239.672 1025.34 243.15 1034.68 243.036L1132.57 241.741H1132.55ZM1155.18 294.544C1138.77 286.498 1125.57 326.731 1134.57 354.258C1147.09 336.687 1154.47 316.343 1155.18 294.544ZM615.404 318.616C603.59 308.342 592.571 300.477 581.099 295.272C583.052 314.752 600.137 320.571 615.404 318.616ZM194.881 335.505C198.334 335.3 205.763 338.028 207.512 340.619C215.055 351.826 200.515 370.692 207.308 389.172C211.102 399.469 227.459 407.175 238.614 407.22L319.697 407.425C338.622 379.171 333.283 339.369 321.333 306.864C314.926 289.43 295.025 306.637 265.013 308.66L229.799 311.047C215.441 312.024 204.196 316.297 199.084 331.345C167.641 311.433 123.726 318.798 85.3995 334.096C109.527 343.938 131.837 339.255 155.896 337.801L194.881 335.482V335.505ZM757.668 424.609C757.827 416.722 755.419 410.607 757.691 410.516L767.255 410.107L802.447 408.629L889.936 405.925C877.1 392.968 862.947 389.036 846.862 386.626C805.309 380.398 765.143 367.919 722.795 365.1C666.862 361.395 612.155 364.009 555.858 364.123L528.777 366.623C520.008 367.441 503.151 367.146 496.562 371.442C480.841 382.239 469.436 395.332 460.667 413.085C513.033 413.653 560.538 412.766 610.224 412.13L732.291 410.584C744.014 410.425 751.761 415.471 757.645 424.655L757.668 424.609ZM808.808 423.654C834.662 422.336 862.083 422.336 886.301 423.882C888.528 424.018 894.775 422.472 894.435 420.609L892.731 411.471L823.257 413.63L763.234 414.38L764.438 425.905L808.808 423.654ZM1102.04 420.449L1054.53 419.177C1053.53 419.154 1048.49 424.336 1049.49 424.45L1055.42 425.2C1072.12 427.314 1088.32 425.677 1102.04 420.449ZM502.855 546.15C497.267 544.945 490.792 537.217 491.087 532.807C492.109 517.328 547.293 496.074 558.221 496.938L582.144 498.802L776.684 531.33C750.012 518.919 722 513.804 692.579 508.599C645.052 500.189 598.41 490.869 549.588 490.051C530.936 489.733 515.873 505.053 496.653 507.849L502.151 487.573C494.563 490.915 493.268 503.826 493.995 512.054C470.845 519.328 448.24 527.329 449.035 548.923L591.322 580.928L696.737 603.272C729.701 596.339 758.304 584.679 787.452 569.017C794.654 566.199 799.789 560.061 798.948 550.219C767.551 570.358 734.768 584.383 696.782 588.134L502.878 546.196L502.855 546.15Z" fill="#B8926A"/>
</g>
<defs>
<clipPath id="clip0_154_69">
<rect width="1323" height="606" fill="white"/>
</clipPath>
</defs>
</svg>
